packages/sources/assets/src/assets/flag-mt.svg

<svg width="28" height="20" viewBox="0 0 28 20" fill="none" xmlns="http://www.w3.org/2000/svg">
<rect x="0.25" y="0.25" width="27.5" height="19.5" rx="1.75" fill="white" stroke="#F5F5F5" stroke-width="0.5"/>
<mask id="mask0_503_4607" style="mask-type:alpha" maskUnits="userSpaceOnUse" x="0" y="0" width="28" height="20">
<rect x="0.25" y="0.25" width="27.5" height="19.5" rx="1.75" fill="white" stroke="white" stroke-width="0.5"/>
</mask>
<g mask="url(#mask0_503_4607)">
<path fill-rule="evenodd" clip-rule="evenodd" d="M14.6665 20H27.9998V0H14.6665V20Z" fill="#DE233C"/>
<mask id="path-4-outside-1_503_4607" maskUnits="userSpaceOnUse" x="1.6665" y="1.66669" width="6" height="6" fill="black">
<rect fill="white" x="1.6665" y="1.66669" width="6" height="6"/>
<path fill-rule="evenodd" clip-rule="evenodd" d="M5.33333 2.66669H4V4.00002H2.6665V5.33335H4V6.66669H5.33333V5.33335H6.6665V4.00002H5.33333V2.66669Z"/>
</mask>
<path fill-rule="evenodd" clip-rule="evenodd" d="M5.33333 2.66669H4V4.00002H2.6665V5.33335H4V6.66669H5.33333V5.33335H6.6665V4.00002H5.33333V2.66669Z" fill="#CCCCCD"/>
<path d="M4 2.66669V2.00002H3.33333V2.66669H4ZM5.33333 2.66669H6V2.00002H5.33333V2.66669ZM4 4.00002V4.66669H4.66667V4.00002H4ZM2.6665 4.00002V3.33335H1.99984V4.00002H2.6665ZM2.6665 5.33335H1.99984V6.00002H2.6665V5.33335ZM4 5.33335H4.66667V4.66669H4V5.33335ZM4 6.66669H3.33333V7.33335H4V6.66669ZM5.33333 6.66669V7.33335H6V6.66669H5.33333ZM5.33333 5.33335V4.66669H4.66667V5.33335H5.33333ZM6.6665 5.33335V6.00002H7.33317V5.33335H6.6665ZM6.6665 4.00002H7.33317V3.33335H6.6665V4.00002ZM5.33333 4.00002H4.66667V4.66669H5.33333V4.00002ZM4 3.33335H5.33333V2.00002H4V3.33335ZM4.66667 4.00002V2.66669H3.33333V4.00002H4.66667ZM2.6665 4.66669H4V3.33335H2.6665V4.66669ZM3.33317 5.33335V4.00002H1.99984V5.33335H3.33317ZM4 4.66669H2.6665V6.00002H4V4.66669ZM4.66667 6.66669V5.33335H3.33333V6.66669H4.66667ZM5.33333 6.00002H4V7.33335H5.33333V6.00002ZM4.66667 5.33335V6.66669H6V5.33335H4.66667ZM6.6665 4.66669H5.33333V6.00002H6.6665V4.66669ZM5.99984 4.00002V5.33335H7.33317V4.00002H5.99984ZM5.33333 4.66669H6.6665V3.33335H5.33333V4.66669ZM4.66667 2.66669V4.00002H6V2.66669H4.66667Z" fill="#7B716A" fill-opacity="0.66" mask="url(#path-4-outside-1_503_4607)"/>
<path fill-rule="evenodd" clip-rule="evenodd" d="M4.66667 5.33333C5.03486 5.33333 5.33333 5.03486 5.33333 4.66667C5.33333 4.29848 5.03486 4 4.66667 4C4.29848 4 4 4.29848 4 4.66667C4 5.03486 4.29848 5.33333 4.66667 5.33333Z" fill="#7B716A"/>
</g>
</svg>

<svg width="28" height="20" fill="none" xmlns="http://www.w3.org/2000/svg"><rect x=".25" y=".25" width="27.5" height="19.5" rx="1.75" fill="#fff" stroke="#F5F5F5" stroke-width=".5"/><mask id="a" style="mask-type:alpha" maskUnits="userSpaceOnUse" x="0" y="0" width="28" height="20"><rect x=".25" y=".25" width="27.5" height="19.5" rx="1.75" fill="#fff" stroke="#fff" stroke-width=".5"/></mask><g mask="url(#a)"><path fill-rule="evenodd" clip-rule="evenodd" d="M14.666 20H28V0H14.666v20Z" fill="#DE233C"/><mask id="b" maskUnits="userSpaceOnUse" x="1.667" y="1.667" width="6" height="6" fill="#000"><path fill="#fff" d="M1.667 1.667h6v6h-6z"/><path fill-rule="evenodd" clip-rule="evenodd" d="M5.333 2.667H4V4H2.667v1.333H4v1.334h1.333V5.333h1.333V4H5.333V2.667Z"/></mask><path fill-rule="evenodd" clip-rule="evenodd" d="M5.333 2.667H4V4H2.667v1.333H4v1.334h1.333V5.333h1.333V4H5.333V2.667Z" fill="#CCCCCD"/><path d="M4 2.667V2h-.667v.667H4Zm1.333 0H6V2h-.667v.667ZM4 4v.667h.667V4H4ZM2.667 4v-.667H2V4h.667Zm0 1.333H2V6h.667v-.667Zm1.333 0h.667v-.666H4v.666Zm0 1.334h-.667v.666H4v-.666Zm1.333 0v.666H6v-.666h-.667Zm0-1.334v-.666h-.666v.666h.666Zm1.333 0V6h.667v-.667h-.667Zm0-1.333h.667v-.667h-.667V4ZM5.333 4h-.666v.667h.666V4ZM4 3.333h1.333V2H4v1.333ZM4.667 4V2.667H3.333V4h1.334Zm-2 .667H4V3.333H2.667v1.334Zm.666.666V4H2v1.333h1.333ZM4 4.667H2.667V6H4V4.667Zm.667 2V5.333H3.333v1.334h1.334ZM5.333 6H4v1.333h1.333V6Zm-.666-.667v1.334H6V5.333H4.667Zm2-.666H5.332V6h1.333V4.667ZM6 4v1.333h1.333V4H6Zm-.667.667h1.333V3.333H5.333v1.334Zm-.666-2V4H6V2.667H4.667Z" fill="#7B716A" fill-opacity=".66" mask="url(#b)"/><path fill-rule="evenodd" clip-rule="evenodd" d="M4.667 5.333a.667.667 0 1 0 0-1.333.667.667 0 0 0 0 1.333Z" fill="#7B716A"/></g></svg>
